X: 1716
T: Sen Sînemde Cân İdin
C: Necip Mirkelâmoğlu
O: Turkey
F: http://compmusic.upf.edu/node/140
N: saba--sarki--aksak--sen_sinemde--necip_mirkelamoglu
N: makam= saba
N: form= sarki
N: usul= aksak = 9/8
M: 9/8
L: 1/16
K: C _2/4B _3/4d  
Q: 1/4=180
%%MIDI tuningsystem comma53
g_7/8agf efed edcB c6 | cd cBA3Bc2 d2e2 f2g2  | 
w:  ARANAĞME  |   | 
g_7/8agf _1/4bagf efed c2B2 A2 | cd cdgf edcB BAA4AB  | 
w:   |   | 
c4 e3f edcB c4 d2 | dc cBB4c4cB BABA  | 
w:  *  Sen  sî nem *  *  *  de   |  *  *  *  *  cân_ i din   | 
G4 A2B2 c4 c2d2 dc | c3BA2 B2c4cd cBAB  | \
w:  *  ben  ki  can dan   |  *  *  ol mu şum   SAZ  | 
c4 e3f edcB c4 d2 | 
w:  *  Sen  sî nem *  *  *  de   | 
dc cBB4c4cB BABA  | G4 A2B2 c4 c2d2 dc | \
w:  *  *  *  *  cân_ i din   |  *  ben  ki  can dan   | 
c3BA2 B2c4cd cBAB  | 
w:  *  *  ol mu şum   SAZ  | 
c4 c2d2 d2c2 d2c2 B2 | c3BB3AA3G^3/4FG A2GF  | \
w:  *  Yan mı şım  *  yan  |  mı *  şım  *  da   | 
^3/4F4 e2d2 d2c2 e2d2 c2 | 
w:  *  san ki  du *  man   | 
c3Bc2 BAA4cd cBAB  | c4 c2d2 d2c2 d2c2 B2 | \
w:  *  *  ol mu *  şum   SAZ  |  *  Yan mı şım  *  yan  | 
c3BB3AA3G^3/4FG A2GF  | 
w:  mı *  şım  *  da   | 
^3/4F4 e2f2 edcB c2d2 dc | c3Bc2 BAA4g_7/8a gfef  | 
w:  *  san ki  du *  *  *  man   |  *  *  ol mu *  şum   SAZ  | 
g4 e2f2 g4 _7/8a2g2 f2 | e4f4g4_7/8a4ag  | \
w:  *  Bun ca  derd_ i   |  gam  i çin   | 
g4 e2f2 g4 _7/8a2g2 f2 | _7/8a2 agf3ee4ga gfef  | 
w:  *  fe le ğe  si  |  te *  *  mim  *  yok   SAZ  | 
g4 e2f2 g4 c'_1/4b_7/8ag f2 | _7/8a4g4f2 e2a4ag  | \
w:  *  Bun ca  derd_ i   |  gam  i çin   | 
g4 z2g_7/8a gfed c2d2 dc | 
w:  *  fe le ğe  *  *  *  si  | 
c3BA2 B2c4cd cBAB  | c4 c2d2 d2c2 d2c2 B2 | \
w:  *  *  te mim  yok   SAZ  |  *  Yan mı şım  *  yan  | 
c3BB3AA3G^3/4FG A2GF  | 
w:  mı *  şım  *  da   | 
^3/4F4 e2d2 d2c2 e2d2 c2 | c3Bc2 BAA4cd cBAB  | \
w:  *  san ki  du *  man   |  *  *  ol mu *  şum   SAZ  | 
c4 c2d2 d2c2 d2c2 B2 | 
w:  *  Yan mı şım  *  yan  | 
c3BB3AA3G^3/4FG A2GF  | ^3/4F4 e2f2 edcB c2d2 dc | 
w:  mı *  şım  *  da   |  *  san ki  du *  *  *  man   | 
c3Bc2 BAA4|
w:  *  *  ol mu *  şum    | 


